!!!OTL: MEIN GUTER MICHEL LIEBET MICH
!!!ARE: Europa, Mitteleuropa, Deutschland
!!!SCT: F0060
!!!YEM: Copyright 1995, estate of Helmut Schaffrath.
**kern
*ICvox
*Ivox
*M2/4
*k[f#]
*G:
{8d
=1
8.g
16g
8g
8g
=2
8g
8b
8g
8r
=3
8g
8b
8g}
{8b
=4
8a
8g
8f#
8e
=5
8d
8f#
8a}
{8g
=6
8f#
8dd
8dd
8cc#
=7
4dd
8r}
{8d
=8
8cc
8cc
8a
8a
=9
8b
8b
8g}
{8g
=10
8a
8a
8f#
8f#
=11
8g
8b
8dd}
{8dd
=12
8cc
8cc
8a
8a
=13
8b
8b
8g}
{8g
=14
8a
8a
8f#
8f#
=15
4g
8r}
==
!!!AGN: Liebes - Lied, Hochzeit
!!!ONB: ESAC (Essen Associative Code) Database: FINK
!!!AMT: simple duple
!!!AIN: vox
!!!EED: Helmut Schaffrath
!!!EEV: 1.0
*-
